X:44
T:Roscommon Reel, The
M:C|
L:1/8
Q:120
R:Reel (Key of Edor)
K:Edor
"Em"EFGA BAGB | "D"AFdF eAdA | "Em"EFGA BAGB |1 "D"AFDE "Em"FEE2 :|2 "D"AFDE "Em"FEEf||
"Em"eB~B2 efge | "D"f2af bfaf | "Em"eB~B2 efge | "D"fedf "Em"efgf |
eB~B2 efge | "D"f2af bfaf | "G"~g2ge "D"~f2fe | dBAF "Em"EFGA ||
"G"B3A B2dB | "D"AF~F2 dFAF | "Em"EBBA BcdB | "D"AFDE "Em"FEED |
"G"EBBA BcdB | "D"AF~F2 dFAF | "Em"EBBA BcdB | "D"AFDE "Em"FEE2 |]
